raw/deprecated/under-review.svg

<svg width="220" height="160" viewBox="0 0 220 160" fill="none" xmlns="http://www.w3.org/2000/svg">
<rect x="60" y="34.0001" width="94" height="110" rx="12" fill="url(#paint0_linear_4078_173128)"/>
<mask id="mask0_4078_173128" style="mask-type:alpha" maskUnits="userSpaceOnUse" x="60" y="34" width="94" height="111">
<rect x="60" y="34.0002" width="94" height="110" rx="12" fill="url(#paint1_linear_4078_173128)"/>
</mask>
<g mask="url(#mask0_4078_173128)">
<rect x="69.4583" y="41.4586" width="75.0833" height="94.0833" fill="url(#paint2_linear_4078_173128)" stroke="white" stroke-width="0.916667"/>
<path opacity="0.6" d="M81 73C81 71.8954 81.8954 71 83 71H130C131.105 71 132 71.8954 132 73V115C132 116.105 131.105 117 130 117H83C81.8954 117 81 116.105 81 115V73Z" fill="url(#paint3_linear_4078_173128)"/>
<path opacity="0.6" fill-rule="evenodd" clip-rule="evenodd" d="M107 53H81V57H107V53ZM132 61H81V65H132V61Z" fill="url(#paint4_linear_4078_173128)"/>
<path opacity="0.6" d="M121.204 96.8257H116.004C114.852 96.8257 113.811 96.1363 113.36 95.0752L111.581 90.8808C111.323 90.2718 111.489 89.5741 111.981 89.1319C113.738 87.5536 114.692 85.1005 114.132 82.4497C113.578 79.8256 111.455 77.705 108.83 77.1569C104.328 76.217 100.365 79.6272 100.365 83.9633C100.365 86.0508 101.291 87.9128 102.748 89.1856C103.256 89.6286 103.435 90.3362 103.172 90.9562L101.424 95.0752C100.974 96.1363 99.9329 96.8257 98.7804 96.8257H93.4122C92.6322 96.8257 92 97.4579 92 98.2379V103.771C92 104.551 92.6322 105.183 93.4122 105.183H121.204C121.984 105.183 122.616 104.551 122.616 103.771V98.2383C122.617 97.4583 121.984 96.8257 121.204 96.8257ZM120.543 107.98H94.0966C93.7078 107.98 93.3928 108.295 93.3928 108.684V110.062C93.3928 110.451 93.7078 110.766 94.0966 110.766H120.543C120.932 110.766 121.247 110.451 121.247 110.062V108.684C121.247 108.296 120.932 107.98 120.543 107.98Z" fill="#AFB4C8"/>
<circle opacity="0.8" cx="149" cy="124" r="31" fill="url(#paint5_linear_4078_173128)"/>
<circle cx="62" cy="55" r="20" fill="url(#paint6_linear_4078_173128)"/>
</g>
<path d="M112.724 34.9501H101.276C102.953 34.0603 104.32 32.6144 105.1 30.7958C105.816 29.1249 108.184 29.1249 108.9 30.7958C109.68 32.6144 111.047 34.0603 112.724 34.9501Z" stroke="url(#paint7_linear_4078_173128)" stroke-width="12.1"/>
<mask id="mask1_4078_173128" style="mask-type:alpha" maskUnits="userSpaceOnUse" x="88" y="23" width="38" height="19">
<path d="M112.724 34.9501H101.276C102.953 34.0603 104.32 32.6144 105.1 30.7958C105.816 29.1249 108.184 29.1249 108.9 30.7958C109.68 32.6144 111.047 34.0603 112.724 34.9501Z" stroke="url(#paint8_linear_4078_173128)" stroke-width="12.1"/>
</mask>
<g mask="url(#mask1_4078_173128)">
<rect opacity="0.4" x="72.5625" y="32.4816" width="62.6875" height="12.8889" fill="url(#paint9_linear_4078_173128)"/>
</g>
<circle cx="107.001" cy="28.2001" r="2.2" fill="#757B94"/>
<circle cx="56" cy="49" r="19.4" fill="#EBEDF5" fill-opacity="0.6" stroke="#282C33" stroke-width="1.2"/>
<path d="M53.2758 51.7478H49.2508C48.7253 51.7478 48.3628 51.2218 48.5498 50.731L52.5493 40.233C52.6034 40.091 52.6994 39.9687 52.8246 39.8825C52.9497 39.7962 53.0981 39.75 53.2501 39.75H59.9991C60.5316 39.75 60.8946 40.2895 60.6936 40.7828L58.3648 46.4988H62.7488C63.3936 46.4988 63.7376 47.2588 63.3123 47.7433L52.5638 59.9908C52.0413 60.5863 51.0726 60.0703 51.2753 59.3045L53.2758 51.7478Z" fill="#0066FF"/>
<path d="M29 49C29 34.0883 41.0883 22 56 22" stroke="#C5CCDB" stroke-width="1.8"/>
<path d="M55 24.7516V19.2484C55 18.7453 55.582 18.4656 55.9748 18.7799L59.4143 21.5315C59.7146 21.7717 59.7146 22.2283 59.4143 22.4685L55.9748 25.2201C55.582 25.5344 55 25.2547 55 24.7516Z" fill="#C5CCDB"/>
<path d="M56 76C41.0883 76 29 63.9117 29 49" stroke="#C5CCDB" stroke-width="0.9" stroke-dasharray="3.6 3.6"/>
<path d="M56 29.5263V32.1579" stroke="#282C33" stroke-width="1.2"/>
<path d="M56 65.8421V68.4737" stroke="#282C33" stroke-width="1.2"/>
<path d="M75.4727 49L72.8411 49" stroke="#282C33" stroke-width="1.2"/>
<path d="M39.1562 49L36.5247 49" stroke="#282C33" stroke-width="1.2"/>
<circle cx="149" cy="124" r="22" fill="#0066FF"/>
<path d="M148.186 113.407V124.353C148.186 124.518 148.252 124.676 148.371 124.792L156.741 132.963" stroke="url(#paint10_linear_4078_173128)" stroke-width="5.5" stroke-linejoin="round"/>
<defs>
<linearGradient id="paint0_linear_4078_173128" x1="60" y1="34.0001" x2="154" y2="34.0001" gradientUnits="userSpaceOnUse">
<stop stop-color="#CFD4E6"/>
<stop offset="1" stop-color="#DBE0F0"/>
</linearGradient>
<linearGradient id="paint1_linear_4078_173128" x1="60" y1="34.0002" x2="154" y2="34.0002" gradientUnits="userSpaceOnUse">
<stop stop-color="#C0C5D8"/>
<stop offset="1" stop-color="#EBF0FB"/>
</linearGradient>
<linearGradient id="paint2_linear_4078_173128" x1="69" y1="41.0002" x2="145" y2="41.0002" gradientUnits="userSpaceOnUse">
<stop stop-color="#CFD4E4"/>
<stop offset="1" stop-color="#DBE1F2"/>
</linearGradient>
<linearGradient id="paint3_linear_4078_173128" x1="81" y1="99.9355" x2="133.53" y2="99.9355" gradientUnits="userSpaceOnUse">
<stop stop-color="#DFE3F0"/>
<stop offset="1" stop-color="white" stop-opacity="0.5"/>
</linearGradient>
<linearGradient id="paint4_linear_4078_173128" x1="81" y1="61.8065" x2="133.53" y2="61.8065" gradientUnits="userSpaceOnUse">
<stop stop-color="#DFE3F0"/>
<stop offset="1" stop-color="white" stop-opacity="0.5"/>
</linearGradient>
<linearGradient id="paint5_linear_4078_173128" x1="149" y1="93" x2="123.58" y2="146.94" gradientUnits="userSpaceOnUse">
<stop stop-color="#D7DDEC"/>
<stop offset="1" stop-color="#B6BDD2"/>
</linearGradient>
<linearGradient id="paint6_linear_4078_173128" x1="62" y1="35" x2="45.6" y2="69.8" gradientUnits="userSpaceOnUse">
<stop stop-color="#D7DDEC"/>
<stop offset="1" stop-color="#B6BDD2"/>
</linearGradient>
<linearGradient id="paint7_linear_4078_173128" x1="88.5" y1="30.2501" x2="125.5" y2="30.2501" gradientUnits="userSpaceOnUse">
<stop stop-color="#CBD1E7"/>
<stop offset="1" stop-color="#DDE3F1"/>
</linearGradient>
<linearGradient id="paint8_linear_4078_173128" x1="88.5" y1="30.2501" x2="125.5" y2="30.2501" gradientUnits="userSpaceOnUse">
<stop stop-color="#BEC2D0"/>
<stop offset="1" stop-color="#DBE0F1"/>
</linearGradient>
<linearGradient id="paint9_linear_4078_173128" x1="103.906" y1="32.4816" x2="103.906" y2="45.3705" gradientUnits="userSpaceOnUse">
<stop stop-color="#868FAE" stop-opacity="0"/>
<stop offset="1" stop-color="#61677C"/>
</linearGradient>
<linearGradient id="paint10_linear_4078_173128" x1="148.186" y1="113.815" x2="156.334" y2="132.963" gradientUnits="userSpaceOnUse">
<stop offset="0.0111865" stop-color="white"/>
<stop offset="1" stop-color="white" stop-opacity="0.55"/>
</linearGradient>
</defs>
</svg>

<svg width="220" height="160" viewBox="0 0 220 160" fill="none" xmlns="http://www.w3.org/2000/svg"><rect x="60" y="34" width="94" height="110" rx="12" fill="url(#paint0_linear_4078_173128)"/><mask id="mask0_4078_173128" style="mask-type:alpha" maskUnits="userSpaceOnUse" x="60" y="34" width="94" height="111"><rect x="60" y="34" width="94" height="110" rx="12" fill="url(#paint1_linear_4078_173128)"/></mask><g mask="url(#mask0_4078_173128)"><path fill="url(#paint2_linear_4078_173128)" stroke="#fff" stroke-width=".917" d="M69.458 41.459H144.541V135.542H69.458z"/><path opacity=".6" d="M81 73a2 2 0 0 1 2-2h47a2 2 0 0 1 2 2v42a2 2 0 0 1-2 2H83a2 2 0 0 1-2-2V73z" fill="url(#paint3_linear_4078_173128)"/><path opacity=".6" fill-rule="evenodd" clip-rule="evenodd" d="M107 53H81v4h26v-4zm25 8H81v4h51v-4z" fill="url(#paint4_linear_4078_173128)"/><path opacity=".6" d="M121.204 96.826h-5.2a2.874 2.874 0 0 1-2.644-1.75l-1.779-4.195a1.54 1.54 0 0 1 .4-1.75c1.757-1.577 2.711-4.03 2.151-6.681-.554-2.624-2.677-4.745-5.302-5.293a6.972 6.972 0 0 0-8.465 6.806c0 2.088.926 3.95 2.383 5.223.508.443.687 1.15.424 1.77l-1.748 4.12a2.872 2.872 0 0 1-2.644 1.75h-5.368c-.78 0-1.412.632-1.412 1.412v5.533c0 .78.632 1.412 1.412 1.412h27.792c.78 0 1.412-.632 1.412-1.412v-5.533a1.412 1.412 0 0 0-1.412-1.412zm-.661 11.154H94.097a.704.704 0 0 0-.704.704v1.378c0 .389.315.704.704.704h26.446a.704.704 0 0 0 .704-.704v-1.378a.704.704 0 0 0-.704-.704z" fill="#AFB4C8"/><circle opacity=".8" cx="149" cy="124" r="31" fill="url(#paint5_linear_4078_173128)"/><circle cx="62" cy="55" r="20" fill="url(#paint6_linear_4078_173128)"/></g><path d="M112.724 34.95h-11.448a8.485 8.485 0 0 0 3.824-4.154c.716-1.671 3.084-1.671 3.8 0a8.485 8.485 0 0 0 3.824 4.154z" stroke="url(#paint7_linear_4078_173128)" stroke-width="12.1"/><mask id="mask1_4078_173128" style="mask-type:alpha" maskUnits="userSpaceOnUse" x="88" y="23" width="38" height="19"><path d="M112.724 34.95h-11.448a8.485 8.485 0 0 0 3.824-4.154c.716-1.671 3.084-1.671 3.8 0a8.485 8.485 0 0 0 3.824 4.154z" stroke="url(#paint8_linear_4078_173128)" stroke-width="12.1"/></mask><g mask="url(#mask1_4078_173128)"><path opacity=".4" fill="url(#paint9_linear_4078_173128)" d="M72.563 32.482H135.251V45.370999999999995H72.563z"/></g><circle cx="107.001" cy="28.2" r="2.2" fill="#757B94"/><circle cx="56" cy="49" r="19.4" fill="#EBEDF5" fill-opacity=".6" stroke="#282C33" stroke-width="1.2"/><path d="M53.276 51.748H49.25a.75.75 0 0 1-.701-1.017l4-10.498a.75.75 0 0 1 .7-.483H60a.75.75 0 0 1 .694 1.033l-2.33 5.716h4.385a.75.75 0 0 1 .563 1.244L52.564 59.991c-.523.595-1.491.08-1.289-.687l2-7.556z" fill="#06F"/><path d="M29 49c0-14.912 12.088-27 27-27" stroke="#C5CCDB" stroke-width="1.8"/><path d="M55 24.752v-5.504a.6.6 0 0 1 .975-.468l3.44 2.752a.6.6 0 0 1 0 .936l-3.44 2.752a.6.6 0 0 1-.975-.468z" fill="#C5CCDB"/><path d="M56 76c-14.912 0-27-12.088-27-27" stroke="#C5CCDB" stroke-width=".9" stroke-dasharray="3.6 3.6"/><path d="M56 29.526v2.632M56 65.842v2.632M75.473 49H72.84M39.156 49h-2.631" stroke="#282C33" stroke-width="1.2"/><circle cx="149" cy="124" r="22" fill="#06F"/><path d="M148.186 113.407v10.946c0 .165.066.323.185.439l8.37 8.171" stroke="url(#paint10_linear_4078_173128)" stroke-width="5.5" stroke-linejoin="round"/><defs><linearGradient id="paint0_linear_4078_173128" x1="60" y1="34" x2="154" y2="34" gradientUnits="userSpaceOnUse"><stop stop-color="#CFD4E6"/><stop offset="1" stop-color="#DBE0F0"/></linearGradient><linearGradient id="paint1_linear_4078_173128" x1="60" y1="34" x2="154" y2="34" gradientUnits="userSpaceOnUse"><stop stop-color="#C0C5D8"/><stop offset="1" stop-color="#EBF0FB"/></linearGradient><linearGradient id="paint2_linear_4078_173128" x1="69" y1="41" x2="145" y2="41" gradientUnits="userSpaceOnUse"><stop stop-color="#CFD4E4"/><stop offset="1" stop-color="#DBE1F2"/></linearGradient><linearGradient id="paint3_linear_4078_173128" x1="81" y1="99.936" x2="133.53" y2="99.936" gradientUnits="userSpaceOnUse"><stop stop-color="#DFE3F0"/><stop offset="1" stop-color="#fff" stop-opacity=".5"/></linearGradient><linearGradient id="paint4_linear_4078_173128" x1="81" y1="61.806" x2="133.53" y2="61.806" gradientUnits="userSpaceOnUse"><stop stop-color="#DFE3F0"/><stop offset="1" stop-color="#fff" stop-opacity=".5"/></linearGradient><linearGradient id="paint5_linear_4078_173128" x1="149" y1="93" x2="123.58" y2="146.94" gradientUnits="userSpaceOnUse"><stop stop-color="#D7DDEC"/><stop offset="1" stop-color="#B6BDD2"/></linearGradient><linearGradient id="paint6_linear_4078_173128" x1="62" y1="35" x2="45.6" y2="69.8" gradientUnits="userSpaceOnUse"><stop stop-color="#D7DDEC"/><stop offset="1" stop-color="#B6BDD2"/></linearGradient><linearGradient id="paint7_linear_4078_173128" x1="88.5" y1="30.25" x2="125.5" y2="30.25" gradientUnits="userSpaceOnUse"><stop stop-color="#CBD1E7"/><stop offset="1" stop-color="#DDE3F1"/></linearGradient><linearGradient id="paint8_linear_4078_173128" x1="88.5" y1="30.25" x2="125.5" y2="30.25" gradientUnits="userSpaceOnUse"><stop stop-color="#BEC2D0"/><stop offset="1" stop-color="#DBE0F1"/></linearGradient><linearGradient id="paint9_linear_4078_173128" x1="103.906" y1="32.482" x2="103.906" y2="45.37" gradientUnits="userSpaceOnUse"><stop stop-color="#868FAE" stop-opacity="0"/><stop offset="1" stop-color="#61677C"/></linearGradient><linearGradient id="paint10_linear_4078_173128" x1="148.186" y1="113.815" x2="156.334" y2="132.963" gradientUnits="userSpaceOnUse"><stop offset=".011" stop-color="#fff"/><stop offset="1" stop-color="#fff" stop-opacity=".55"/></linearGradient></defs></svg>
